public/icons/Location.svg

<svg fill="none" height="30" viewBox="0 0 30 30" width="30" xmlns="http://www.w3.org/2000/svg"><path d="m15.0073 22.5942c.5218 0 1.2029-2.1014 1.2029-5.9275v-4.7247c1.9276-.5362 3.3334-2.30432 3.3334-4.39126 0-2.50725-2.029-4.55074-4.5363-4.55074-2.5217 0-4.5362 2.04349-4.5362 4.55074 0 2.08694 1.3913 3.85506 3.3044 4.39126v4.7247c0 3.8116.6956 5.9275 1.2318 5.9275zm-1.2753-14.7681c-.8261 0-1.5507-.72464-1.5507-1.56524 0-.84057.7246-1.55072 1.5507-1.55072.8551 0 1.5507.71015 1.5507 1.55072 0 .8406-.6956 1.56524-1.5507 1.56524zm1.2753 19.1739c7.087 0 11.029-2.5362 11.029-5.087 0-3.2318-5-5.1883-8.0869-5.1883v2.0434c2 0 5.2898 1.1594 5.2898 2.8261 0 1.6812-3.0145 3.2029-8.2319 3.2029-5.21736 0-8.24632-1.5072-8.24632-3.2029 0-1.6667 3.28982-2.8261 5.30432-2.8261v-2.0434c-3.08693 0-8.10143 1.9565-8.10143 5.1883 0 2.5508 3.94203 5.087 11.04343 5.087z" fill="#000"/></svg>

<svg width="30" height="30" viewBox="0 0 30 30" fill="none" xmlns="http://www.w3.org/2000/svg">
<path d="M15.0073 22.5942C15.5291 22.5942 16.2102 20.4928 16.2102 16.6667V11.942C18.1378 11.4058 19.5436 9.63768 19.5436 7.55074C19.5436 5.04349 17.5146 3 15.0073 3C12.4856 3 10.4711 5.04349 10.4711 7.55074C10.4711 9.63768 11.8624 11.4058 13.7755 11.942V16.6667C13.7755 20.4783 14.4711 22.5942 15.0073 22.5942ZM13.732 7.8261C12.9059 7.8261 12.1813 7.10146 12.1813 6.26086C12.1813 5.42029 12.9059 4.71014 13.732 4.71014C14.5871 4.71014 15.2827 5.42029 15.2827 6.26086C15.2827 7.10146 14.5871 7.8261 13.732 7.8261ZM15.0073 27C22.0943 27 26.0363 24.4638 26.0363 21.913C26.0363 18.6812 21.0363 16.7247 17.9494 16.7247V18.7681C19.9494 18.7681 23.2392 19.9275 23.2392 21.5942C23.2392 23.2754 20.2247 24.7971 15.0073 24.7971C9.78994 24.7971 6.76098 23.2899 6.76098 21.5942C6.76098 19.9275 10.0508 18.7681 12.0653 18.7681V16.7247C8.97837 16.7247 3.96387 18.6812 3.96387 21.913C3.96387 24.4638 7.9059 27 15.0073 27Z" fill="black"/>
</svg>
